remix/Design/focus-line.svg

<svg viewBox="0 0 24 24" fill="currentColor" xmlns="http://www.w3.org/2000/svg"><path d="M12 20C16.4183 20 20 16.4183 20 12C20 7.58172 16.4183 4 12 4C7.58172 4 4 7.58172 4 12C4 16.4183 7.58172 20 12 20ZM12 22C6.47715 22 2 17.5228 2 12C2 6.47715 6.47715 2 12 2C17.5228 2 22 6.47715 22 12C22 17.5228 17.5228 22 12 22ZM12 14C10.8954 14 10 13.1046 10 12C10 10.8954 10.8954 10 12 10C13.1046 10 14 10.8954 14 12C14 13.1046 13.1046 14 12 14Z"/></svg>

<svg viewBox="0 0 24 24" xmlns="http://www.w3.org/2000/svg"><path fill="none" d="M0 0h24v24H0Z"/><path d="M12 20v0c4.41 0 8-3.59 8-8 0-4.42-3.59-8-8-8v0c-4.42 0-8 3.58-8 8 0 4.41 3.58 8 8 8Zm0 2C6.477 22 2 17.523 2 12 2 6.477 6.477 2 12 2c5.523 0 10 4.477 10 10s-4.477 10-10 10Zm0-8v0c-1.11 0-2-.9-2-2 0-1.11.89-2 2-2v0c1.1 0 2 .89 2 2 0 1.1-.9 2-2 2Z"/></svg>
